icons/Logos/slack-fill.svg

<svg viewBox="0 0 24 24" xmlns="http://www.w3.org/2000/svg"><path d="M6.52739 14.5138C6.52739 15.5969 5.64264 16.4816 4.55959 16.4816C3.47654 16.4816 2.5918 15.5969 2.5918 14.5138C2.5918 13.4308 3.47654 12.546 4.55959 12.546H6.52739V14.5138ZM7.51892 14.5138C7.51892 13.4308 8.40366 12.546 9.48671 12.546C10.5698 12.546 11.4545 13.4308 11.4545 14.5138V19.4409C11.4545 20.524 10.5698 21.4087 9.48671 21.4087C8.40366 21.4087 7.51892 20.524 7.51892 19.4409V14.5138ZM9.48671 6.52739C8.40366 6.52739 7.51892 5.64264 7.51892 4.55959C7.51892 3.47654 8.40366 2.5918 9.48671 2.5918C10.5698 2.5918 11.4545 3.47654 11.4545 4.55959V6.52739H9.48671ZM9.48671 7.51892C10.5698 7.51892 11.4545 8.40366 11.4545 9.48671C11.4545 10.5698 10.5698 11.4545 9.48671 11.4545H4.55959C3.47654 11.4545 2.5918 10.5698 2.5918 9.48671C2.5918 8.40366 3.47654 7.51892 4.55959 7.51892H9.48671ZM17.4732 9.48671C17.4732 8.40366 18.3579 7.51892 19.4409 7.51892C20.524 7.51892 21.4087 8.40366 21.4087 9.48671C21.4087 10.5698 20.524 11.4545 19.4409 11.4545H17.4732V9.48671ZM16.4816 9.48671C16.4816 10.5698 15.5969 11.4545 14.5138 11.4545C13.4308 11.4545 12.546 10.5698 12.546 9.48671V4.55959C12.546 3.47654 13.4308 2.5918 14.5138 2.5918C15.5969 2.5918 16.4816 3.47654 16.4816 4.55959V9.48671ZM14.5138 17.4732C15.5969 17.4732 16.4816 18.3579 16.4816 19.4409C16.4816 20.524 15.5969 21.4087 14.5138 21.4087C13.4308 21.4087 12.546 20.524 12.546 19.4409V17.4732H14.5138ZM14.5138 16.4816C13.4308 16.4816 12.546 15.5969 12.546 14.5138C12.546 13.4308 13.4308 12.546 14.5138 12.546H19.4409C20.524 12.546 21.4087 13.4308 21.4087 14.5138C21.4087 15.5969 20.524 16.4816 19.4409 16.4816H14.5138Z"/></svg>

<svg xmlns="http://www.w3.org/2000/svg" viewBox="0 0 24 24">
    <g>
        <path fill="none" d="M0 0h24v24H0z"/>
        <path d="M6.527 14.514A1.973 1.973 0 0 1 4.56 16.48a1.973 1.973 0 0 1-1.967-1.967c0-1.083.884-1.968 1.967-1.968h1.968v1.968zm.992 0c0-1.083.884-1.968 1.967-1.968 1.083 0 1.968.885 1.968 1.968v4.927a1.973 1.973 0 0 1-1.968 1.967 1.973 1.973 0 0 1-1.967-1.967v-4.927zm1.967-7.987A1.973 1.973 0 0 1 7.52 4.56c0-1.083.884-1.967 1.967-1.967 1.083 0 1.968.884 1.968 1.967v1.968H9.486zm0 .992c1.083 0 1.968.884 1.968 1.967a1.973 1.973 0 0 1-1.968 1.968H4.56a1.973 1.973 0 0 1-1.967-1.968c0-1.083.884-1.967 1.967-1.967h4.927zm7.987 1.967c0-1.083.885-1.967 1.968-1.967s1.967.884 1.967 1.967a1.973 1.973 0 0 1-1.967 1.968h-1.968V9.486zm-.992 0a1.973 1.973 0 0 1-1.967 1.968 1.973 1.973 0 0 1-1.968-1.968V4.56c0-1.083.885-1.967 1.968-1.967s1.967.884 1.967 1.967v4.927zm-1.967 7.987c1.083 0 1.967.885 1.967 1.968a1.973 1.973 0 0 1-1.967 1.967 1.973 1.973 0 0 1-1.968-1.967v-1.968h1.968zm0-.992a1.973 1.973 0 0 1-1.968-1.967c0-1.083.885-1.968 1.968-1.968h4.927c1.083 0 1.967.885 1.967 1.968a1.973 1.973 0 0 1-1.967 1.967h-4.927z"/>
    </g>
</svg>
